packages/foundations/assets/icons/functional/images/social/thumbs_down.svg

<svg xmlns="http://www.w3.org/2000/svg" width="32" height="32" fill="none"><path fill="#1A1C1F" fill-rule="evenodd" d="M20.587 3.023c-1.473.178-5.012 1.236-8.975 2.684l-.468.171-.279-.213a4 4 0 0 0-.557-.353c-.56-.28-.75-.297-3.305-.298-1.507 0-2.46.02-2.64.058-1.041.215-1.926 1.058-2.265 2.157-.092.299-.098.617-.098 5.304v4.987l.141.386c.078.212.208.5.289.64.236.404.752.883 1.185 1.102.674.339.785.35 3.376.351 2.147.001 2.357-.007 2.739-.105.415-.106.862-.326 1.145-.565l.151-.127.5.355a24 24 0 0 1 3.01 2.547c1.722 1.723 2.535 2.964 3.141 4.791.289.875.425 1.154.719 1.489.575.651 1.772.809 2.726.358.892-.422 1.521-1.332 1.785-2.582.123-.58.126-1.714.006-2.347a16.8 16.8 0 0 0-1.129-3.509l-.128-.277 2.652-.03c2.509-.027 2.674-.035 3.068-.145.625-.174 1.067-.408 1.452-.768.847-.792 1.159-1.815 1.16-3.804.001-1.545-.216-2.74-.783-4.302-.847-2.339-2.07-4.287-3.643-5.807q-1.756-1.696-3.485-2.042c-.437-.087-1.199-.142-1.49-.106m1.306 2.123c.841.292 1.622.828 2.459 1.69 1.673 1.721 3.011 4.294 3.499 6.728.101.502.119.765.118 1.663-.004 2.089-.278 2.617-1.425 2.749-.241.027-1.872.05-3.626.05-3.071.001-3.197.005-3.396.106-.349.178-.579.63-.51 1.001.02.106.201.506.403.89.672 1.279 1.216 2.676 1.447 3.72.159.717.171 1.774.026 2.257-.197.654-.497.986-.891.986l-.19.001-.283-.856c-.673-2.033-1.655-3.529-3.571-5.442-1.233-1.23-2.394-2.195-3.622-3.01q-.387-.257-.36-.333c.016-.041.029-2.23.029-4.864v-4.79l.92-.33c2.939-1.056 5.844-1.954 7.347-2.272.447-.095 1.274-.066 1.626.056M9.494 7.155c.142.083.289.228.36.354l.119.212v4.749c0 3.226-.018 4.798-.056 4.9-.071.186-.292.424-.504.541-.14.078-.421.091-2.233.105-1.353.011-2.168-.004-2.344-.041-.341-.074-.606-.274-.734-.555-.095-.21-.1-.443-.1-4.913 0-4.44.006-4.705.098-4.909.113-.248.377-.491.584-.536.079-.017.167-.04.196-.051s1.025-.014 2.213-.008l2.16.01z"/></svg>

<svg width="32" height="32" viewBox="0 0 32 32" fill="none" xmlns="http://www.w3.org/2000/svg"><path d="M20.587 3.023 C 19.114 3.201,15.575 4.259,11.612 5.707 L 11.144 5.878 10.865 5.665 C 10.712 5.548,10.461 5.389,10.308 5.312 C 9.748 5.032,9.558 5.015,7.003 5.014 C 5.496 5.014,4.543 5.034,4.363 5.072 C 3.322 5.287,2.437 6.130,2.098 7.229 C 2.006 7.528,2.000 7.846,2.000 12.533 L 2.000 17.520 2.141 17.906 C 2.219 18.118,2.349 18.406,2.430 18.546 C 2.666 18.950,3.182 19.429,3.615 19.648 C 4.289 19.987,4.400 19.998,6.991 19.999 C 9.138 20.000,9.348 19.992,9.730 19.894 C 10.145 19.788,10.592 19.568,10.875 19.329 L 11.026 19.202 11.526 19.557 C 12.584 20.309,13.603 21.171,14.536 22.104 C 16.258 23.827,17.071 25.068,17.677 26.895 C 17.966 27.770,18.102 28.049,18.396 28.384 C 18.971 29.035,20.168 29.193,21.122 28.742 C 22.014 28.320,22.643 27.410,22.907 26.160 C 23.030 25.580,23.033 24.446,22.913 23.813 C 22.709 22.737,22.249 21.306,21.784 20.304 L 21.656 20.027 24.308 19.997 C 26.817 19.970,26.982 19.962,27.376 19.852 C 28.001 19.678,28.443 19.444,28.828 19.084 C 29.675 18.292,29.987 17.269,29.988 15.280 C 29.989 13.735,29.772 12.540,29.205 10.978 C 28.358 8.639,27.135 6.691,25.562 5.171 C 24.391 4.040,23.230 3.360,22.077 3.129 C 21.640 3.042,20.878 2.987,20.587 3.023 M21.893 5.146 C 22.734 5.438,23.515 5.974,24.352 6.836 C 26.025 8.557,27.363 11.130,27.851 13.564 C 27.952 14.066,27.970 14.329,27.969 15.227 C 27.965 17.316,27.691 17.844,26.544 17.976 C 26.303 18.003,24.672 18.026,22.918 18.026 C 19.847 18.027,19.721 18.031,19.522 18.132 C 19.173 18.310,18.943 18.762,19.012 19.133 C 19.032 19.239,19.213 19.639,19.415 20.023 C 20.087 21.302,20.631 22.699,20.862 23.743 C 21.021 24.460,21.033 25.517,20.888 26.000 C 20.691 26.654,20.391 26.986,19.997 26.986 L 19.807 26.987 19.524 26.131 C 18.851 24.098,17.869 22.602,15.953 20.689 C 14.720 19.459,13.559 18.494,12.331 17.679 C 12.074 17.509,11.952 17.396,11.971 17.346 C 11.987 17.305,12.000 15.116,12.000 12.482 L 12.000 7.692 12.920 7.362 C 15.859 6.306,18.764 5.408,20.267 5.090 C 20.714 4.995,21.541 5.024,21.893 5.146 M9.494 7.155 C 9.636 7.238,9.783 7.383,9.854 7.509 L 9.973 7.721 9.973 12.470 C 9.973 15.696,9.955 17.268,9.917 17.370 C 9.846 17.556,9.625 17.794,9.413 17.911 C 9.273 17.989,8.992 18.002,7.180 18.016 C 5.827 18.027,5.012 18.012,4.836 17.975 C 4.495 17.901,4.230 17.701,4.102 17.420 C 4.007 17.210,4.002 16.977,4.002 12.507 C 4.002 8.067,4.008 7.802,4.100 7.598 C 4.213 7.350,4.477 7.107,4.684 7.062 C 4.763 7.045,4.851 7.022,4.880 7.011 C 4.909 7.001,5.905 6.997,7.093 7.003 L 9.253 7.013 9.494 7.155 " fill="#1A1C1F" stroke="none" fill-rule="evenodd"></path></svg>
